!!!COM: Palestrina, Giovanni Perluigi da
!!!OPR: Missa Nigra sum
!!!OMD: Sanctus
!!!OTL: Pleni
**kern	**kern	**kern	**kern
*Ibass	*Itenor	*Icalto	*Icant
!Bassus	!Tenor	!Altus	!Cantus
*clefF4	*clefGv2	*clefG2	*clefG2
*k[b-]	*k[b-]	*k[b-]	*k[b-]
*D:aeo	*D:aeo	*D:aeo	*D:aeo
*M4/2	*M4/2	*M4/2	*M4/2
=39	=39	=39	=39
0r	1d	0r	0r
.	2c	.	.
.	2d	.	.
=40	=40	=40	=40
0r	1e-	1g	0r
.	2d	2f	.
.	[2G	2g	.
=41	=41	=41	=41
0r	4G]	1b-	0r
.	4A	.	.
.	4B-	.	.
.	4c	.	.
.	4d	2a	.
.	4e	.	.
.	2f	[2d	.
=42	=42	=42	=42
0r	4B-	4d]	1dd
.	4c	4e	.
.	4d	4f	.
.	4e	4g	.
.	2f	2a	2cc
.	2d	2b	2dd
=43	=43	=43	=43
0r	1c	1.cc	1ee-
.	[1G	.	2dd
.	.	4b-	[2g
.	.	4a	.
=44	=44	=44	=44
1r	1G]	2b-	4g]
.	.	.	4a
.	.	2g	4b-
.	.	.	4cc
1G	1r	1b-	2dd
.	.	.	2ee
=45	=45	=45	=45
2F	0r	2a	2ff
2G	.	2.g	2.ee
1B-	.	.	.
.	.	4f	4dd
.	.	4f	[2dd
.	.	8e	.
.	.	8d	.
=46	=46	=46	=46
1A	0r	1e	2dd]
.	.	.	2cc#
2r	.	4d	1dd
.	.	4e	.
[2D	.	4f	.
.	.	4g	.
=47	=47	=47	=47
4D]	1d	1a	1ff
4E	.	.	.
4F	.	.	.
4G	.	.	.
2A	2c	2r	2ee
2B	2d	2g	[2dd
=48	=48	=48	=48
1c	1e-	2g	4dd]
.	.	.	4cc
.	.	2a	2cc
2G	2d	1b-	[1dd
[2B-	[2G	.	.
=49	=49	=49	=49
4B-]	4G]	2b-	1dd]
4A	4A	.	.
2G	4B-	2b-	.
.	4c	.	.
2.F	4d	[1a	1r
.	4e	.	.
.	[2f	.	.
4E	.	.	.
=50	=50	=50	=50
2.D	4f]	1a]	1r
.	4e	.	.
.	2.d	.	.
4C	.	.	.
4BB-	.	1d	1dd
4C	4c	.	.
4D	2B-	.	.
4E	.	.	.
=51	=51	=51	=51
2F	2A	0r	2cc
2D	1B-	.	2dd
1C	.	.	1ee-
.	2A	.	.
=52	=52	=52	=52
1G	1B-	1r	2dd
.	.	.	2.g
1r	1e-	1g	.
.	.	.	4a
.	.	.	4b-
.	.	.	4cc
=53	=53	=53	=53
0r	2d	2f	2dd
.	2.G	2g	2.b-
.	.	1b-	.
.	4A	.	4a
.	4B-	.	2g
.	4c	.	.
=54	=54	=54	=54
1r	2.d	2a	1f
.	.	2.d	.
.	4e	.	.
1D	1f	.	2.a
.	.	4e	.
.	.	4f	.
.	.	4g	4b-
=55	=55	=55	=55
2C	2e-	2a	2cc
2D	2.d	2.b-	2f
1E-	.	.	2.g
.	8c	4a	.
.	8B-	.	.
.	2c	[2g	.
.	.	.	4a
=56	=56	=56	=56
1D	2d	2g]	2b-
.	2.d	2f	2a
2r	.	2b-	2.dd
.	4e	.	.
[2D	4f	4a	.
.	4g	4g	4ee
=57	=57	=57	=57
4D]	1.a	4f	1.ff
4E	.	4g	.
4F	.	4a	.
4G	.	4b-	.
4A	.	1cc	.
4B-	.	.	.
2c	2g	.	[2ee
=58	=58	=58	=58
2d	2f	2a	4ee]
.	.	.	4dd
2G	2g	2b-	1dd
1A	1e	[1a	.
.	.	.	2cc#
=59	=59	=59	=59
2r	2d	0a]	1dd
1d	1f	.	.
.	.	.	1r
2c	2e	.	.
=60	=60	=60	=60
2B-	2d	0r	0r
2A	2f	.	.
2G	2e	.	.
2F	[2d	.	.
=61	=61	=61	=61
1E	2d]	1r	1r
.	2c#	.	.
1D	1d	2r	2r
.	.	[2f	[2dd
=62	=62	=62	=62
0r	1A	2f]	2dd]
.	.	2e	2cc
.	2B-	2d	2b-
.	2F	2f	2a
=63	=63	=63	=63
0r	1G	2e	2g
.	.	1d	2f
.	1A	.	1e
.	.	2c#	.
=64	=64	=64	=64
1r	2.B-	1d	2d
.	.	.	2f
.	4A	.	.
2r	1G	2r	4g
.	.	.	4a
[2B-	.	[2g	4b-
.	.	.	4cc
=65	=65	=65	=65
2B-]	1D	2g]	1dd
2A	.	2f	.
2G	2r	2e-	1r
2B-	2G	2d	.
=66	=66	=66	=66
2A	2A	2c	2r
1G	2B-	2B-	2g
.	2.c	1A	2a
2F	.	.	2cc
.	4d	.	.
=67	=67	=67	=67
0G	2e-	4G	4b-
.	.	4A	4a
.	2.d	4B-	4g
.	.	4c	4a
.	.	2.d	4b-
.	4c	.	4cc
.	2B-	.	2dd
.	.	4e	.
=68	=68	=68	=68
1r	2A	2f#	2cc
.	2G	1g	2b-
2r	1d	.	1a
[2d	.	2f#	.
=69	=69	=69	=69
4d]	1G	2g	2g
4c	.	.	.
4B-	.	1b-	1gg
4A	.	.	.
2G	1r	.	.
2A	.	2a	2ff
=70	=70	=70	=70
2c	0r	2g	2ee-
2B-	.	2b-	2dd
2F	.	2a	2cc
2G	.	[2g	2b-
=71	=71	=71	=71
1D	1r	2g]	1a
.	.	2f#	.
1E-	2r	1g	2g
.	[2g	.	[2b-
=72	=72	=72	=72
1D	2g]	2r	2b-]
.	2f	2d	2a
2E-	2e-	2B-	2g
2BB-	2d	2B-	2b-
=73	=73	=73	=73
1C	2c	1e-	2a
.	2B-	.	1g
1D	1A	2.d	.
.	.	.	2f#
.	.	4c	.
=74	=74	=74	=74
1E-	2G	1B-	2g
.	1g	.	1ee-
1BB-	.	2.b-	.
.	2f	.	2dd
.	.	4a	.
=75	=75	=75	=75
2.C	2.e-	1g	2cc
.	.	.	1ee-
4D	4d	.	.
4E-	2c	2g	.
4F	.	.	.
2G	2B-	2g	2dd
=76	=76	=76	=76
0C	0e-	0g	0cc
=77	=77	=77	=77
0G	0d	0g	0b
*-	*-	*-	*-
!!!CDT: 1525/^1526/-1594/2/2
!!!OCY: Italia
!!!AGN: Mass (Parody)
!!!AST: renaissance, vocal
!!!ASW: Motet 1532 (Lhéritier)
!!!PWK: Masses, Book 5
!!!RNB: Cadence finals: G,A
!!!YOR: Le Opere Complete, v. 15, p. 89
!!!YOO: Rome, Italy: Fratelli Scalera
!!!END: 1992//
!!!EED: John Miller
!!!YEC: Copyright 2000, John Miller
!!!YEN: United States of America
!!!YEM: Rights to all derivative electronic formats reserved.
!!!YEM: Refer to licensing agreement for further details.
!!!YEM: This file must be accompanied by the licensing agreement.
!!!YEM: A copy of the licensing agreement may be found at http://www.music-cog.ohio-state.edu/HumdrumDatabases/Palestrina/license.txt
!!!EMD: converted to Humdrum by Bret Aarden
